X: 36705
T: Sheba's
R: jig
M: 6/8
K: Gmajor
def|:gdB dcA|GAB D2B|cEA BDG|FAA def|
gdB dcA|GAB D2B|c2B AGF|1 G3 def:|2 G3 GcB||
AFD FGA|GDc Bcd|e2c dcB|A3 AcB|
[1 AFD FGA|GDc Bcd|c2B AGF|G3 GcB:|
[2 AFD FGA|Ggf edc|BAG FGA|G3 GBd||

